svg/fluentui-system-icons/ic_fluent_select_object_skew_dismiss_20_filled.svg

<svg width="20" height="20" viewBox="0 0 20 20" fill="none" xmlns="http://www.w3.org/2000/svg">
<path d="M15 4.5C15 5.32843 15.6716 6 16.5 6C17.3284 6 18 5.32843 18 4.5C18 3.67157 17.3284 3 16.5 3C15.6716 3 15 3.67157 15 4.5ZM2 15.5C2 16.3284 2.67157 17 3.5 17C4.32843 17 5 16.3284 5 15.5C5 14.6716 4.32843 14 3.5 14C2.67157 14 2 14.6716 2 15.5ZM6 4.5C6 5.32843 6.67157 6 7.5 6C8.32843 6 9 5.32843 9 4.5C9 3.67157 8.32843 3 7.5 3C6.67157 3 6 3.67157 6 4.5ZM9.88575 5.25H14.1147C14.0403 5.01324 14.0002 4.7613 14.0002 4.5C14.0002 4.2387 14.0403 3.98676 14.1147 3.75H9.88575C9.96011 3.98676 10.0002 4.2387 10.0002 4.5C10.0002 4.7613 9.96011 5.01324 9.88575 5.25ZM3.61035 13.0024L5.98028 6.48507C6.37427 6.78719 6.8608 6.97466 7.39 6.99761L5.02008 13.5149C4.62608 13.2128 4.13955 13.0253 3.61035 13.0024ZM5.88575 16.25H9.28426C9.12514 15.7756 9.02894 15.2723 9.00558 14.75H5.88575C5.96011 14.9868 6.0002 15.2387 6.0002 15.5C6.0002 15.7613 5.96011 16.0132 5.88575 16.25ZM16.39 6.99761L15.6203 9.11419C15.2586 9.03933 14.8839 9 14.5 9C14.3517 9 14.2048 9.00587 14.0594 9.01739L14.9803 6.48507C15.3743 6.78719 15.8608 6.97466 16.39 6.99761ZM19 14.5C19 16.9853 16.9853 19 14.5 19C12.0147 19 10 16.9853 10 14.5C10 12.0147 12.0147 10 14.5 10C16.9853 10 19 12.0147 19 14.5ZM16.3536 13.3536C16.5488 13.1583 16.5488 12.8417 16.3536 12.6464C16.1583 12.4512 15.8417 12.4512 15.6464 12.6464L14.5 13.7929L13.3536 12.6464C13.1583 12.4512 12.8417 12.4512 12.6464 12.6464C12.4512 12.8417 12.4512 13.1583 12.6464 13.3536L13.7929 14.5L12.6464 15.6464C12.4512 15.8417 12.4512 16.1583 12.6464 16.3536C12.8417 16.5488 13.1583 16.5488 13.3536 16.3536L14.5 15.2071L15.6464 16.3536C15.8417 16.5488 16.1583 16.5488 16.3536 16.3536C16.5488 16.1583 16.5488 15.8417 16.3536 15.6464L15.2071 14.5L16.3536 13.3536Z" fill="#212121"/>
</svg>

<svg xmlns="http://www.w3.org/2000/svg" width="20" height="20"><path d="M15 4.5a1.5 1.5 0 1 0 3 0 1.5 1.5 0 0 0-3 0Zm-13 11a1.5 1.5 0 1 0 3 0 1.5 1.5 0 0 0-3 0Zm4-11a1.5 1.5 0 1 0 3 0 1.5 1.5 0 0 0-3 0Zm3.886.75h4.229a2.498 2.498 0 0 1 0-1.5h-4.23a2.499 2.499 0 0 1 0 1.5ZM3.61 13.002l2.37-6.517c.394.302.88.49 1.41.513l-2.37 6.517a2.488 2.488 0 0 0-1.41-.513Zm2.276 3.248h3.398a5.481 5.481 0 0 1-.278-1.5h-3.12a2.5 2.5 0 0 1 0 1.5ZM16.39 6.998l-.77 2.116a5.523 5.523 0 0 0-1.56-.097l.92-2.532c.394.302.88.49 1.41.513ZM19 14.5a4.5 4.5 0 1 1-9 0 4.5 4.5 0 0 1 9 0Zm-2.646-1.146a.5.5 0 0 0-.708-.708L14.5 13.793l-1.146-1.147a.5.5 0 0 0-.708.708l1.147 1.146-1.147 1.146a.5.5 0 0 0 .708.708l1.146-1.147 1.146 1.147a.5.5 0 0 0 .708-.708L15.207 14.5l1.147-1.146Z"/></svg>
